src/main/resources/extratci/icons/custom/featureTrainerToolWindow_dark.svg

<svg xmlns="http://www.w3.org/2000/svg" width="13" height="13" viewBox="0 0 13 13">
  <path fill="#AFB1B3" fill-rule="evenodd" d="M2.44309167,6.76870257 L6.3,8.92857124 L6.3,11.0714284 L2.44386829,8.91199462 L2.44309167,6.76870257 Z M10.1571432,6.76870257 L10.1563666,8.91199462 L6.30023486,11.0714284 L6.30023486,8.92857124 L10.1571432,6.76870257 Z M6.3,1.3 L12.3,4.47142857 L12.3,8.84285714 L11.2714286,8.84285714 L11.271,5.044 L6.3,7.81428571 L0.3,4.47142857 L6.3,1.3 Z"/>
</svg>

<svg xmlns="http://www.w3.org/2000/svg" width="13" height="13" viewBox="0 0 13 13"><path fill="#AFB1B3" fill-rule="evenodd" d="M2.443 6.769 6.3 8.929v2.142L2.444 8.912V6.769zm7.714 0v2.143L6.3 11.072V8.928l3.857-2.16zM6.3 1.3l6 3.171v4.372h-1.029V5.044L6.3 7.814l-6-3.343 6-3.171z"/></svg>
